build/assets/images/content/Logo.svg

<svg width="40" height="40" viewBox="0 0 40 40" fill="none" xmlns="http://www.w3.org/2000/svg">
<g clip-path="url(#clip0_401_1238)">
<path d="M26.0741 23.9543L19.0476 39.9966C14.3492 39.785 9.73545 37.8802 6.09524 34.367L17.8624 23.658L16.127 21.9225L5.62963 33.9014C2.03175 30.1765 0.169312 25.4357 0 20.6527L15.0265 14.0495L19.1746 9.60506L16.5926 14.7691L15.1534 15.3617C15.1534 20.3987 19.2169 24.4622 24.254 24.4622L25.0582 22.9384L30.0952 20.3141L26.0741 23.9543ZM34.1587 5.83786C26.328 -1.99283 13.672 -1.99283 5.8836 5.83786C2.07407 9.64738 0.126984 14.5574 0.042328 19.5521L16.254 11.0019C17.8201 8.20823 20.7831 6.30347 24.2116 6.30347C29.2487 6.30347 33.3122 10.367 33.3122 15.404C33.3122 18.7056 31.5344 21.5839 28.91 23.1924L20.0212 40.0389C25.1429 40.0389 30.2222 38.0918 34.1164 34.1977C41.9471 26.3246 41.9471 13.6685 34.1587 5.83786Z" fill="url(#paint0_linear_401_1238)"/>
</g>
<defs>
<linearGradient id="paint0_linear_401_1238" x1="5.85439" y1="34.1396" x2="34.1384" y2="5.8556" gradientUnits="userSpaceOnUse">
<stop stop-color="#02D4FF"/>
<stop offset="1" stop-color="#004EFF"/>
</linearGradient>
<clipPath id="clip0_401_1238">
<rect width="40" height="40" fill="white"/>
</clipPath>
</defs>
</svg>

<svg width="40" height="40" fill="none" xmlns="http://www.w3.org/2000/svg"><g clip-path="url(#clip0_401_1238)"><path d="M26.074 23.954l-7.026 16.043c-4.699-.212-9.313-2.117-12.953-5.63l11.767-10.709-1.735-1.736L5.63 33.903A20.015 20.015 0 010 20.651l15.027-6.603 4.148-4.444-2.582 5.164-1.44.593c0 5.037 4.064 9.1 9.101 9.1l.804-1.524 5.037-2.624-4.02 3.64zM34.16 5.838c-7.831-7.83-20.487-7.83-28.275 0-3.81 3.81-5.757 8.72-5.842 13.714l16.212-8.55c1.566-2.794 4.53-4.699 7.958-4.699 5.037 0 9.1 4.064 9.1 9.101 0 3.302-1.778 6.18-4.402 7.788l-8.89 16.848a19.835 19.835 0 0014.095-5.841c7.831-7.873 7.831-20.53.043-28.36z" fill="url(#paint0_linear_401_1238)"/></g><defs><linearGradient id="paint0_linear_401_1238" x1="5.854" y1="34.14" x2="34.138" y2="5.856" gradientUnits="userSpaceOnUse"><stop stop-color="#02D4FF"/><stop offset="1" stop-color="#004EFF"/></linearGradient><clipPath id="clip0_401_1238"><path fill="#fff" d="M0 0h40v40H0z"/></clipPath></defs></svg>
